X:761
T:Danse des Paysans, Bergen. [2]
T:peasant dance from the Bj\/orgvin Diocese, Norway
C:John Malchair's Third Collection of Tunes
F:https://www.vwml.org/record/Malchair/3619/p76
F:www.vwml.org/topics/historic-dance-and-tune-books/Malchair
Z:Eric Conrad Mar 2020
N:In the MS, this is titled as "autre" ("other")
M:3/4
L:1/8
K:Am
P:A
ef df e^c | fa ag af | ef df e^c | A^G A4 ||
P:B
efdf e^c | fa agaf | efdf e^c | fa ag af |
efdf e^c | A^GAB^cd | efdf e^c | A^G A4 |]

